public/images/logo.svg

<svg fill="none" height="40" viewBox="0 0 51 40" width="51" xmlns="http://www.w3.org/2000/svg" xmlns:xlink="http://www.w3.org/1999/xlink"><clipPath id="a"><path d="m0 0h51v40h-51z"/></clipPath><g clip-path="url(#a)" fill="#000"><path d="m41.3014 26.05c-.4333 0-.8667-.0833-1.3-.25-.4-.2-.7-.4833-.9-.85-.4667-.8667-.95-2.0167-1.45-3.45-.4667-1.4333-.9333-2.9667-1.4-4.6-.4333-1.6333-.8167-3.2-1.15-4.7-.0837-.385-.1611-.7542-.2321-1.1076-.2239-1.11338-1.4851-1.44533-2.0179-.4424-.5667 1.0333-1.1167 2.15-1.65 3.35s-1 2.2667-1.4 3.2c-.3667.9333-.6167 1.5-.75 1.7-.3.5333-.6667.9667-1.1 1.3s-1 .5-1.7.5c-.4667 0-.9333-.0667-1.4-.2s-.8833-.4667-1.25-1c-.7-1.0667-1.3667-2.35-2-3.85-.6-1.5333-1.15-3.1167-1.65-4.75-.5-1.66667-.9333-3.25-1.3-4.75-.159-.66499-.3055-1.28296-.4394-1.85391-.2636-1.12353.396-2.25409 1.501-2.58693 1.1946-.35982 2.4488.34543 2.7594 1.55378.0887.34532.1817.70767.279 1.08706.3333 1.3.7 2.65 1.1 4.05.4 1.36666.8 2.65 1.2 3.85.4174 1.1557 1.9231 1.13 2.4231.0075.3649-.8192.7405-1.6383 1.1269-2.4575.8667-1.76667 1.7167-3.38333 2.55-4.85.8333-1.5 1.6-2.7 2.3-3.6.7333-.9 1.3333-1.35 1.8-1.35.7 0 1.2167.216666 1.55.65.3333.4.5667.93333.7 1.6.1667.83333.3833 1.98333.65 3.45.3 1.43333.6167 3 .95 4.7.3667 1.7.75 3.35 1.15 4.95.429 1.5839 2.3916 1.7132 2.9482.1696.0849-.2354.1688-.4753.2518-.7196.6333-1.8 1.2-3.5833 1.7-5.35.2246-.80843.429-1.56644.6132-2.27401.3341-1.2831 1.6616-2.05479 2.932-1.67514 1.1361.33954 1.8281 1.48918 1.514 2.63264-.1348.49092-.2879 1.01309-.4592 1.56651-.4 1.3667-.8667 2.8167-1.4 4.35-.5 1.5-1.0333 2.9667-1.6 4.4-.5667 1.4-1.1 2.65-1.6 3.75s-.9333 1.9167-1.3 2.45c-.4.5667-.8167.95-1.25 1.15-.4.1667-.8333.25-1.3.25z"/><path d="m13.0343 4.35825c-.4715-.99161-1.6011-1.47599-2.6521-1.15824-1.31074.39627-1.96846 1.8597-1.41009 3.11001.48816 1.0931.99793 2.25643 1.52929 3.48999.9334 2.19999 1.8167 4.48329 2.65 6.84999.8334 2.4 1.5 4.7833 2 7.15.5334 2.3667.8 4.5833.8 6.65 0 1.2667-.2666 2.2667-.8 3-.5333.7667-1.2 1.3-2 1.6-.8.3333-1.6166.5-2.45.5-1.46664 0-2.66664-.2833-3.59997-.85-.93334-.5333-1.66667-1.2333-2.2-2.1-.14963-.2494-.28881-.5032-.41753-.7615-.51368-1.0309-1.59531-1.7334-2.72886-1.5296-1.311181.2357-2.146872 1.5685-1.56879 2.7688.762884 1.5839 1.78461 2.9247 3.06518 4.0223 1.86666 1.6 4.51666 2.4 7.94997 2.4 1.1 0 2.2167-.15 3.35-.45 1.1334-.2667 2.15-.75 3.05-1.45.9334-.7 1.6834-1.6667 2.25-2.9.5667-1.2.85-2.7167.85-4.55 0-1.8667-.2333-3.9333-.7-6.2-.4666-2.2667-1.1-4.6167-1.9-7.05s-1.7166-4.8667-2.75-7.29999c-.7446-1.81195-1.517-3.5592-2.3171-5.24176z"/></g></svg>

<svg width="51" height="40" viewBox="0 0 51 40" fill="none" xmlns="http://www.w3.org/2000/svg">
<g clip-path="url(#clip0_3_39)">
<path d="M41.3014 26.05C40.8681 26.05 40.4347 25.9667 40.0014 25.8C39.6014 25.6 39.3014 25.3167 39.1014 24.95C38.6347 24.0833 38.1514 22.9333 37.6514 21.5C37.1847 20.0667 36.7181 18.5333 36.2514 16.9C35.8181 15.2667 35.4347 13.7 35.1014 12.2C35.0177 11.815 34.9403 11.4458 34.8693 11.0924C34.6454 9.97902 33.3842 9.64707 32.8514 10.65C32.2847 11.6833 31.7347 12.8 31.2014 14C30.6681 15.2 30.2014 16.2667 29.8014 17.2C29.4347 18.1333 29.1847 18.7 29.0514 18.9C28.7514 19.4333 28.3847 19.8667 27.9514 20.2C27.5181 20.5333 26.9514 20.7 26.2514 20.7C25.7847 20.7 25.3181 20.6333 24.8514 20.5C24.3847 20.3667 23.9681 20.0333 23.6014 19.5C22.9014 18.4333 22.2347 17.15 21.6014 15.65C21.0014 14.1167 20.4514 12.5333 19.9514 10.9C19.4514 9.23333 19.0181 7.65 18.6514 6.15C18.4924 5.48501 18.3459 4.86704 18.212 4.29609C17.9484 3.17256 18.608 2.042 19.713 1.70916C20.9076 1.34934 22.1618 2.05459 22.4724 3.26294C22.5611 3.60826 22.6541 3.97061 22.7514 4.35C23.0847 5.65 23.4514 7 23.8514 8.4C24.2514 9.76666 24.6514 11.05 25.0514 12.25C25.4688 13.4057 26.9745 13.38 27.4745 12.2575C27.8394 11.4383 28.215 10.6192 28.6014 9.8C29.4681 8.03333 30.3181 6.41667 31.1514 4.95C31.9847 3.45 32.7514 2.25 33.4514 1.35C34.1847 0.45 34.7847 0 35.2514 0C35.9514 0 36.4681 0.216666 36.8014 0.65C37.1347 1.05 37.3681 1.58333 37.5014 2.25C37.6681 3.08333 37.8847 4.23333 38.1514 5.7C38.4514 7.13333 38.7681 8.7 39.1014 10.4C39.4681 12.1 39.8514 13.75 40.2514 15.35C40.6804 16.9339 42.643 17.0632 43.1996 15.5196C43.2845 15.2842 43.3684 15.0443 43.4514 14.8C44.0847 13 44.6514 11.2167 45.1514 9.45C45.376 8.64157 45.5804 7.88356 45.7646 7.17599C46.0987 5.89289 47.4262 5.1212 48.6966 5.50085C49.8327 5.84039 50.5247 6.99003 50.2106 8.13349C50.0758 8.62441 49.9227 9.14658 49.7514 9.7C49.3514 11.0667 48.8847 12.5167 48.3514 14.05C47.8514 15.55 47.3181 17.0167 46.7514 18.45C46.1847 19.85 45.6514 21.1 45.1514 22.2C44.6514 23.3 44.2181 24.1167 43.8514 24.65C43.4514 25.2167 43.0347 25.6 42.6014 25.8C42.2014 25.9667 41.7681 26.05 41.3014 26.05Z" fill="#000000"/>
<path d="M13.0343 4.35825C12.5628 3.36664 11.4332 2.88226 10.3822 3.20001C9.07146 3.59628 8.41374 5.05971 8.97211 6.31002C9.46027 7.40312 9.97004 8.56645 10.5014 9.80001C11.4348 12 12.3181 14.2833 13.1514 16.65C13.9848 19.05 14.6514 21.4333 15.1514 23.8C15.6848 26.1667 15.9514 28.3833 15.9514 30.45C15.9514 31.7167 15.6848 32.7167 15.1514 33.45C14.6181 34.2167 13.9514 34.75 13.1514 35.05C12.3514 35.3833 11.5348 35.55 10.7014 35.55C9.23476 35.55 8.03476 35.2667 7.10143 34.7C6.16809 34.1667 5.43476 33.4667 4.90143 32.6C4.7518 32.3506 4.61262 32.0968 4.4839 31.8385C3.97022 30.8076 2.88859 30.1051 1.75504 30.3089C0.443859 30.5446 -0.391832 31.8774 0.18625 33.0777C0.949134 34.6616 1.97086 36.0024 3.25143 37.1C5.11809 38.7 7.76809 39.5 11.2014 39.5C12.3014 39.5 13.4181 39.35 14.5514 39.05C15.6848 38.7833 16.7014 38.3 17.6014 37.6C18.5348 36.9 19.2848 35.9333 19.8514 34.7C20.4181 33.5 20.7014 31.9833 20.7014 30.15C20.7014 28.2833 20.4681 26.2167 20.0014 23.95C19.5348 21.6833 18.9014 19.3333 18.1014 16.9C17.3014 14.4667 16.3848 12.0333 15.3514 9.60001C14.6068 7.78806 13.8344 6.04081 13.0343 4.35825Z" fill="#000000"/>
</g>
<defs>
<clipPath id="clip0_3_39">
<rect width="51" height="40" fill="white"/>
</clipPath>
</defs>
</svg>
